X:1
T:Hardiman's Jig
C:Martin Hardiman, Chicago
S:Jerry O'Brien's Accordion Instructor (1949)
Z:Nigel Gatherer
M:6/8
L:1/8
K:Bm
A | BeB BAF | AFE EFD | DFA def | afe dBA |
BeB BFF | AFE EFE | DFA def | edB B2 :|
d | efe edB | AFF dFF | def afa | bc'b aff |
bff afa | baf edB | def afd | edB B2 :|
